!!!OTL: Keine Freude mehr (125), S. 285
!!!id: T0290
**kern
*clefG2
*k[]
*C:
{8g
8g
8f
=1
4.e
8g
8.cc
16b
8.a
16e
=2
8g
8f
4f}
8r
=3
{8f
8f
8dd
=4
4.dd
8cc
8.b
16a
8.g
16f
=5
8f
8e
4e}
8r
=6
{8g
8a
8b
=7
4cc
4cc
8.ee
16dd
8.cc
16dd
=8
2a}
8r
=9
{8cc
8b
8a
=10
4.g
8b
4a
8.g
16f
=11
2e}
8r
=12
{8g
8a
8b
=13
4cc
4cc
8.ee
16dd
8.cc
16dd
=14
2a}
8r
=15
{8cc
8b
8a
=16
4.g
8b
4a
8.g
16f
=17
2e}
8r
==
*-
!!!minrhy: 16
!!!meters: 4/4 ]  ZZ[6
!!!cut: Keine Freude mehr (125), S. 285
!!!reg: Luxemburg
!!!trd: Singendes Volk, Esch-Alzette 1937 posth.
!!!rhy1: X_X_X_  X__.X_X_.XX_.X  X_X_X__0_
!!!rhy2: X_X_X_  X__.X_X_.XX_.X  X_X_X__0_
!!!key: T0290  16  C 4/4 ]  ZZ[6
!!!mod: HEPTATONIK IONISCH]  AMBITUS[8
!!!kad: 436363
!!!akz: 3+15_+274_+1+36_563_+1+36_563_
!!!fot: 'a__b__c__d__c__d__
!!!for: 'a__a__b__c__b__c__
!!!fok: 'Sd_^d_^a_\__^a_\__
!! PHRAS[AUFTAKTIG]
!!!fkt: Liebeslieder
!!!bem: Blascheid, fff Barbara Kaisen-Kolbach, 1902
!! THILL, Mathias:
!! PR[34] 2K[5] 2G[5] 3K[0] 3G[2] 4A[0] 4Ü[0] 5A[2] 6K[0] 6G[9]
!! 7K[0] 7G[0] 8A[0] MEHR[0] SI[23] ABS[44] SR[9] SP[14]
!! ST[8] 2k[7] 2g[25] 3k[5] 3g[5] 4d[2] 4ü[0] 5d[0] 6k[0] 6g[0]
!! 7k[0] 7g[0] 8d[0] mehr[0] si[43] dm[-20] sr[32] sp[11]
!! 1F[78] 2F[18] 3F[4] 4F[0] LF[0] 2P[0] 3P[0] 4P[0] TRI[0] DF[3] AB[49]
!! TF[0] U3K[0] U3[0] U4[0] U4Ü[0] U5[18] U6K[0] U6[4] U7K[0] U7[4]
!! N1[16] N2K[0] N2[9] N3K[0] N3[24] N4[16] N4Ü[0] N5[9] N6K[0] N6[0]
!!!n7k: 0] N7[0] O1[0] O2K[0] O2[0] O3K[0] O3[0] HÖ[0
